packages/foundations/assets/icons/functional/images/devices/camera_16_filled.svg

<svg width="16" height="16" viewBox="0 0 16 16" fill="none" xmlns="http://www.w3.org/2000/svg">
<g clip-path="url(#clip0_2204_2742)">
<path fill-rule="evenodd" clip-rule="evenodd" d="M9.5909 3.2C10.0696 3.2 10.5232 3.41438 10.8271 3.78428L11.6656 4.8056L12.795 4.80248C13.6385 4.79987 14.3316 5.45044 14.3952 6.27814L14.4 6.39753V11.2C14.4 12.0837 13.6836 12.8 12.8 12.8H3.19998C2.31632 12.8 1.59998 12.0837 1.59998 11.2V6.40712C1.59998 5.52347 2.31632 4.80712 3.19998 4.80712L4.35278 4.8064L5.16275 3.79841C5.43607 3.45793 5.83513 3.2456 6.26586 3.20654L6.41048 3.2H9.5909ZM7.99998 6.8C7.11632 6.8 6.39998 7.51634 6.39998 8.4C6.39998 9.28365 7.11632 10 7.99998 10C8.88363 10 9.59998 9.28365 9.59998 8.4C9.59998 7.51634 8.88363 6.8 7.99998 6.8Z" fill="#1A1C1F"/>
</g>
<defs>
<clipPath id="clip0_2204_2742">
<rect width="16" height="16" fill="white"/>
</clipPath>
</defs>
</svg>

<svg xmlns="http://www.w3.org/2000/svg" width="16" height="16" fill="none"><g clip-path="url(#a)"><path fill="#1A1C1F" fill-rule="evenodd" d="M9.59 3.2a1.6 1.6 0 0 1 1.237.584l.839 1.022 1.129-.004a1.6 1.6 0 0 1 1.6 1.476l.005.12V11.2a1.6 1.6 0 0 1-1.6 1.6H3.2a1.6 1.6 0 0 1-1.6-1.6V6.407a1.6 1.6 0 0 1 1.6-1.6h1.153l.81-1.009a1.6 1.6 0 0 1 1.103-.591L6.41 3.2zM8 6.8A1.6 1.6 0 1 0 8 10a1.6 1.6 0 0 0 0-3.2" clip-rule="evenodd"/></g><defs><clipPath id="a"><path fill="#fff" d="M0 0h16v16H0z"/></clipPath></defs></svg>
